X:1
T:Búcsút int a tűz
C:Antonín Dvořák
Z:Public Domain
L:1/8
M:3/4
K:C
V:1 treble nm="Voice"
%%MIDI program 52
V:1
 E3 G3 | E2 D C3 | D2 E2 G2- | GE D4 | E3 G3 | E2 D C3 | D2 E2 D2- | DC C4 |: A3 c3 | B2 G A3 | %10
w: Bú- csút|int a tűz,|hal- kan jő|* az éj,|út- nak|in- du- lunk,|test- vér jöjj,|* ne félj!|Új harc|vár mi- ránk,|
w: ||||||||Jé- zus|van ve- lünk,|
 A2 c2 B2- | BG A4 :| E3 G3 | E2 D C3 | D2 E2 G2- | GE D4 | G3 G3 | c2 d e3 | d2 c2 d2- | dA c4 |] %20
w: zeng- jen víg|* da- lunk,|Bár- mint|sújt a sors,|jöj- jön bár-|* mi- vész,|Aj- kunk|csak da- lol,|szí- vünk tett-|* re- kész!|
w: vé- le in-|* du- lunk!|||||||||

